src/img/mail.svg

<svg width="20" height="20" viewBox="0 0 20 20" fill="none" xmlns="http://www.w3.org/2000/svg">
  <path
    fill-rule="evenodd"
    clip-rule="evenodd"
    d="M17.05 2.9502C15.1001 1 12.75 0 10 0C7.25 0 4.8999 1 2.94995 2.9502C1 4.8999 0 7.25 0 10C0 12.75 1 15.1001 2.94995 17.0498C4.8999 19 7.25 20 10 20H15V18H10C7.81006 18 5.92993 17.23 4.3501 15.6499C2.77002 14.0698 2 12.1899 2 10C2 7.81006 2.77002 5.93018 4.3501 4.3501C5.92993 2.77002 7.81006 2 10 2C12.1899 2 14.0701 2.77002 15.6499 4.3501C17.23 5.93018 18 7.81006 18 10V11.4502C18 11.8599 17.8701 12.2202 17.5701 12.5298C17.27 12.8398 16.9199 13 16.5 13C16.1101 13 15.76 12.8398 15.46 12.5298C15.1599 12.2202 15 11.8599 15 11.4502V10C15 8.62988 14.5 7.4502 13.54 6.45996C12.55 5.5 11.3799 5 10 5C8.62988 5 7.44995 5.5 6.45996 6.45996C5.5 7.4502 5 8.62988 5 10C5 11.3799 5.5 12.5498 6.45996 13.54C7.44995 14.5 8.62988 15 10 15C11.3799 15 12.5601 14.5 13.5601 13.5C14.3101 14.5 15.3 15 16.5 15C17.5 15 18.3 14.6699 19 14C19.6499 13.2998 20 12.4502 20 11.4502V10C20 7.25 19 4.8999 17.05 2.9502ZM12.1101 12.1099C11.5 12.7002 10.8101 13 10 13C9.18994 13 8.5 12.7002 7.88989 12.1099C7.30005 11.5 7 10.8101 7 10C7 9.18994 7.30005 8.5 7.88989 7.89014C8.5 7.2998 9.18994 7 10 7C10.8101 7 11.5 7.2998 12.1101 7.89014C12.7 8.5 13 9.18994 13 10C13 10.8101 12.7 11.5 12.1101 12.1099Z"
    fill="#F3084E"/>
</svg>

<svg width="20" height="20" fill="none" xmlns="http://www.w3.org/2000/svg"><path fill-rule="evenodd" clip-rule="evenodd" d="M17.05 2.95C15.1 1 12.75 0 10 0S4.9 1 2.95 2.95C1 4.9 0 7.25 0 10s1 5.1 2.95 7.05C4.9 19 7.25 20 10 20h5v-2h-5c-2.19 0-4.07-.77-5.65-2.35S2 12.19 2 10c0-2.19.77-4.07 2.35-5.65S7.81 2 10 2c2.19 0 4.07.77 5.65 2.35S18 7.81 18 10v1.45c0 .41-.13.77-.43 1.08-.3.31-.65.47-1.07.47-.39 0-.74-.16-1.04-.47-.3-.31-.46-.67-.46-1.08V10c0-1.37-.5-2.55-1.46-3.54C12.55 5.5 11.38 5 10 5c-1.37 0-2.55.5-3.54 1.46C5.5 7.45 5 8.63 5 10c0 1.38.5 2.55 1.46 3.54C7.45 14.5 8.63 15 10 15c1.38 0 2.56-.5 3.56-1.5.75 1 1.74 1.5 2.94 1.5 1 0 1.8-.33 2.5-1 .65-.7 1-1.55 1-2.55V10c0-2.75-1-5.1-2.95-7.05zm-4.94 9.16c-.61.59-1.3.89-2.11.89-.81 0-1.5-.3-2.11-.89C7.3 11.5 7 10.81 7 10c0-.81.3-1.5.89-2.11C8.5 7.3 9.19 7 10 7c.81 0 1.5.3 2.11.89.59.61.89 1.3.89 2.11 0 .81-.3 1.5-.89 2.11z" fill="#F3084E"/></svg>
